!!!COM: Gaspar van Weerbeke
!!!CDT: ~1450-~1517
!!!OPR: Missa N'as tu pas
!!!OTL: Sanctus
!!!OMV: 4
!!!AGN: Mass
!!!SCT: Gas0203d
!!!SCA: Gas0203d
!!!voices: 4
**kern	**text	**kern	**text	**kern	**text	**kern	**text
*part4	*part4	*part3	*part3	*part2	*part2	*part1	*part1
*staff4	*staff4	*staff3	*staff3	*staff2	*staff2	*staff1	*staff1
*I"Bassus	*	*I"Tenor	*	*I"Altus	*	*I"Superius	*
*I'B	*	*I'T	*	*I'A	*	*I'S	*
*>[A,B,C]	*>[A,B,C]	*>[A,B,C]	*>[A,B,C]	*>[A,B,C]	*>[A,B,C]	*>[A,B,C]	*>[A,B,C]
*>Sanctus[A]	*>Sanctus[A]	*>Sanctus[A]	*>Sanctus[A]	*>Sanctus[A]	*>Sanctus[A]	*>Sanctus[A]	*>Sanctus[A]
*>Pleni[B]	*>Pleni[B]	*>Pleni[B]	*>Pleni[B]	*>Pleni[B]	*>Pleni[B]	*>Pleni[B]	*>Pleni[B]
*>Benedictus[C]	*>Benedictus[C]	*>Benedictus[C]	*>Benedictus[C]	*>Benedictus[C]	*>Benedictus[C]	*>Benedictus[C]	*>Benedictus[C]
*>A	*>A	*>A	*>A	*>A	*>A	*>A	*>A
*clefF4	*	*clefGv2	*	*clefGv2	*	*clefG2	*
*k[b-]	*	*k[b-]	*	*k[b-]	*	*k[b-]	*
*M2/2	*	*M2/2	*	*M2/2	*	*M2/2	*
*omet(C|)	*	*omet(C|)	*	*omet(C|)	*	*omet(C|)	*
!!section: Sanctus
=1	=1	=1	=1	=1	=1	=1	=1
1F	San-	[1F	San-	1c	San-	1f	San-
=2	=2	=2	=2	=2	=2	=2	=2
*	*	*	*	*	*	*lig	*
2D	.	2F]	.	2.d	.	2a	.
4.BB-y	.	2G	.	.	.	2b-y	.
.	.	.	.	4e	.	.	.
8AA	.	.	.	.	.	.	.
*	*	*	*	*	*	*Xlig	*
=3	=3	=3	=3	=3	=3	=3	=3
2.FF	.	2.A	.	2.f	.	4a	.
.	.	.	.	.	.	2cc	.
4GG	.	4B-y	.	8eL	.	4b-y	.
.	.	.	.	8dJ	.	.	.
=4	=4	=4	=4	=4	=4	=4	=4
4.AA	.	[1c	.	4.c	.	2a	.
8BB-y	.	.	.	8d	.	.	.
8CL	.	.	.	8eL	.	4g	.
8BB-y	.	.	.	8d	.	.	.
8AA	.	.	.	8c	.	[4a	.
8GGJ	.	.	.	8B-yJ	.	.	.
=5	=5	=5	=5	=5	=5	=5	=5
2FF	-ctus,	1c]	.	2A	-ctus,	4a]	.
.	.	.	.	.	.	8gL	.
.	.	.	.	.	.	8fJ	.
*	*edit	*	*	*	*	*	*
2C	San-	.	.	[2G	San-	2e	.
!!LO:LB:g=original
=6	=6	=6	=6	=6	=6	=6	=6
*	*	*	*	*	*	*lig	*
1D	.	1B-y	.	2G]	.	2d	-ctus,
*	*	*	*	*	*	*	*edit
.	.	.	.	2F	.	2f	San-
*	*	*	*	*	*	*Xlig	*
=7	=7	=7	=7	=7	=7	=7	=7
4.C	.	[1c	-ctus,	2.G	.	4.e	.
8D	.	.	.	.	.	8f	.
4E	.	.	.	.	.	4g	.
4F	.	.	.	4F	.	4a	.
=8	=8	=8	=8	=8	=8	=8	=8
4.C	.	1c]	.	4E	.	4g	.
.	.	.	.	4.A	.	4.cc	.
8BB-y	.	.	.	.	.	.	.
2AA	-ctus,	.	.	.	.	.	.
.	.	.	.	8GL	.	8b-y	.
.	.	.	.	8F	.	[4a	.
.	.	.	.	8EJ	.	.	.
=9	=9	=9	=9	=9	=9	=9	=9
*	*	*lig	*	*	*	*	*
2r	.	2c	San-	4F	.	8aL]	.
.	.	.	.	.	.	8g	.
.	.	.	.	4C	.	8e	.
.	.	.	.	.	.	8fJ	.
*	*Xedit	*	*	*	*	*	*
2GG	San-	2B-y	.	2D	-ctus,	8gL	.
.	.	.	.	.	.	8f	.
.	.	.	.	.	.	8e	.
.	.	.	.	.	.	8dJ	.
*	*	*Xlig	*	*	*	*	*
=10	=10	=10	=10	=10	=10	=10	=10
*	*	*	*	*	*edit	*	*
4.AA	.	[1A	.	4F	San-	2c	-ctus,
.	.	.	.	2E	.	.	.
8BB-y	.	.	.	.	.	.	.
4C	.	.	.	.	.	2r	.
[4D	.	.	.	4D	.	.	.
!!LO:LB:g=original
=11	=11	=11	=11	=11	=11	=11	=11
8DL]	.	1A]	.	4.d	.	2.f	San-
8CJ	.	.	.	.	.	.	.
2D	.	.	.	.	.	.	.
.	.	.	.	8e	.	.	.
.	.	.	.	4f	.	.	.
8CL	.	.	.	8eL	.	4g	.
8BB-yJ	.	.	.	8dJ	.	.	.
=12	=12	=12	=12	=12	=12	=12	=12
4.AA	.	[1c	.	4.c	.	4.a	.
8BB-y	.	.	.	8d	.	8g	.
8CL	.	.	.	4.e	.	4e	.
8DJ	.	.	.	.	.	.	.
[4E	.	.	.	.	.	[4g	.
.	.	.	.	8d	.	.	.
=13	=13	=13	=13	=13	=13	=13	=13
4E]	.	1c]	.	8cL	.	4g]	.
.	.	.	.	8B-yJ	.	.	.
4F	.	.	.	4A	.	2f	.
2C	.	.	.	2G	.	.	.
.	.	.	.	.	.	4e	.
=14	=14	=14	=14	=14	=14	=14	=14
2FF	-ctus,	1c	-ctus,	2F	-ctus,	2f	-ctus,
4r	.	.	.	4.A	San-	2r	.
[4F	San-	.	.	.	.	.	.
.	.	.	.	8B-y	.	.	.
=15	=15	=15	=15	=15	=15	=15	=15
*	*	*	*edit	*	*	*	*
4F]	.	2.c	San-	8cL	.	1r	.
.	.	.	.	8dJ	.	.	.
8EL	.	.	.	2e	.	.	.
8DJ	.	.	.	.	.	.	.
8CL	.	.	.	.	.	.	.
8D	.	.	.	.	.	.	.
8E	.	8B-yL	.	8dL	.	.	.
8FJ	.	8AJ	.	8cJ	.	.	.
!!LO:LB:g=original
=16	=16	=16	=16	=16	=16	=16	=16
4G	.	4B-y	.	8dL	.	2r	.
.	.	.	.	8cJ	.	.	.
4A	.	4A	.	2f	.	.	.
*	*	*	*	*	*	*	*Xedit
2G	.	2B-y	.	.	.	2g	San-
.	.	.	.	4e	.	.	.
=17	=17	=17	=17	=17	=17	=17	=17
4.F	.	[1c	.	2f	-ctus	4.a	.
8G	.	.	.	.	.	8b-y	.
8AL	.	.	.	2r	.	8ccL	.
8GJ	.	.	.	.	.	8b-yJ	.
[4A	.	.	.	.	.	[4cc	.
=18	=18	=18	=18	=18	=18	=18	=18
8AL]	.	2c]	.	1r	.	8ccL]	.
8G	.	.	.	.	.	8b-y	.
8F	.	.	.	.	.	8a	.
8EJ	.	.	.	.	.	8gJ	.
8FL	.	4c	.	.	.	4a	.
8E	.	.	.	.	.	.	.
8D	.	[4d	.	.	.	[4b-y	.
8CJ	.	.	.	.	.	.	.
=19	=19	=19	=19	=19	=19	=19	=19
4BB-y	.	4d]	.	1r	.	4b-]	.
4C	.	4c	.	.	.	2a	.
4D	.	2B-y	.	.	.	.	.
4E	.	.	.	.	.	4g	.
=20	=20	=20	=20	=20	=20	=20	=20
1F	-ctus	1A	-ctus	4.f	Do-	2a	-ctus
.	.	.	.	8e	.	.	.
.	.	.	.	4.c	-mi-	4a	Do-
.	.	.	.	.	.	4a	-mi-
.	.	.	.	8d	.	.	.
!!LO:PB:g=original
=21	=21	=21	=21	=21	=21	=21	=21
1r	.	1r	.	8eL	.	4.g	-nus
.	.	.	.	8dJ	.	.	.
.	.	.	.	4e	.	.	.
.	.	.	.	.	.	8a	.
.	.	.	.	4d	-nus	8b-yL	.
.	.	.	.	.	.	8ccJ	.
.	.	.	.	4f	De-	[4dd	.
=22	=22	=22	=22	=22	=22	=22	=22
1r	.	1r	.	4e	.	4dd]	.
.	.	.	.	4c	.	2cc	De-
.	.	.	.	2d	.	.	.
.	.	.	.	.	.	4bni	.
=23	=23	=23	=23	=23	=23	=23	=23
*	*	*	*Xedit	*	*	*	*
2r	.	2A	Do-	1c	-us,	1cc	-us,
*	*edit	*	*	*	*	*	*
2F	Do-	4A	-mi-	.	.	.	.
.	.	4A	-nus	.	.	.	.
=24	=24	=24	=24	=24	=24	=24	=24
4E	-mi-	4.G	De-	1r	.	1r	.
4.G	-nus	.	.	.	.	.	.
.	.	8A	.	.	.	.	.
.	.	4B-y	.	.	.	.	.
8FL	.	.	.	.	.	.	.
8E	.	[4G	.	.	.	.	.
8DJ	.	.	.	.	.	.	.
=25	=25	=25	=25	=25	=25	=25	=25
4C	.	4G]	.	1r	.	2r	.
4E	.	2c	.	.	.	.	.
*	*	*	*	*	*	*	*edit
2D	De-	.	.	.	.	2f	Do-
.	.	4Bni	.	.	.	.	.
=26	=26	=26	=26	=26	=26	=26	=26
2C	-us,	[1c	-us,	2G	Do-	4.e	-mi-
.	.	.	.	.	.	8f	.
2r	.	.	.	4E	.	2g	.
.	.	.	.	4C	.	.	.
!!LO:LB:g=original
=27	=27	=27	=27	=27	=27	=27	=27
2FF	Do-	1c_	.	2F	-mi-	2a	-nus
2C	-mi-	.	.	[2E	-nus	4g	.
.	.	.	.	.	.	[4a	De-
=28	=28	=28	=28	=28	=28	=28	=28
4.AA	-nus	1c]	.	4E]	.	4a]	.
.	.	.	.	4.e	De-	8gL	.
8BB-y	.	.	.	.	.	8fJ	.
4.C	.	.	.	.	.	4e	.
.	.	.	.	8dL	.	.	.
.	.	.	.	8c	.	[4g	.
8D	.	.	.	16B-yL	.	.	.
.	.	.	.	16AJJ	.	.	.
=29	=29	=29	=29	=29	=29	=29	=29
*	*	*	*edit	*	*	*	*
4E	De-	2c	Do-	2G	.	4g]	.
4C	.	.	.	.	.	4e	.
2GG	-us	2B-y	-mi-	2G	-us,	2d	.
=30	=30	=30	=30	=30	=30	=30	=30
1r	.	4c	-nus	4r	.	2c	-us
.	.	4A	.	4c	Do-	.	.
.	.	4G	.	4B-y	-mi-	2r	.
.	.	[4A	De-	[4c	-nus	.	.
=31	=31	=31	=31	=31	=31	=31	=31
1r	.	4A]	.	8cL]	.	1r	.
.	.	.	.	8dJ	.	.	.
.	.	8GL	.	2e	.	.	.
.	.	8FJ	.	.	.	.	.
.	.	4E	.	.	.	.	.
.	.	[4G	.	[4d	.	.	.
=32	=32	=32	=32	=32	=32	=32	=32
2r	.	4G]	.	4d]	.	1r	.
.	.	4E	.	2c	De-	.	.
*	*	*lig	*	*	*	*	*
2GG	Sa-	2D	.	.	.	.	.
.	.	.	.	4Bni	.	.	.
!!LO:LB:g=original
=33	=33	=33	=33	=33	=33	=33	=33
4AA	.	2C	-us	4.c	-us	2r	.
2C	.	.	.	.	.	.	.
.	.	.	.	8d	.	.	.
*	*	*Xlig	*	*	*	*	*
*	*	*	*	*	*	*	*Xedit
.	.	2r	.	4e	.	2g	Sa-
4BB-y	.	.	.	4d	.	.	.
=34	=34	=34	=34	=34	=34	=34	=34
2AA	.	2C	Sa-	4.e	.	4a	.
.	.	.	.	.	.	4cc	.
.	.	.	.	8f	.	.	.
4GG	.	4D	.	4g	.	4b-y	.
4FF	.	8FL	.	[4c	Sa-	[4a	.
.	.	8GJ	.	.	.	.	.
=35	=35	=35	=35	=35	=35	=35	=35
2F	.	8AL	.	4c]	.	8aL]	.
.	.	8B-yJ	.	.	.	8gJ	.
.	.	4c	.	4f	.	4a	.
4G	.	4B-y	.	4e	.	4g	.
4F	.	[4c	.	4f	.	[4a	.
=36	=36	=36	=36	=36	=36	=36	=36
4E	.	4c]	.	2c	.	8aL]	.
.	.	.	.	.	.	8gJ	.
4F	.	4A	.	.	.	2f	-ba-
2C	-ba-	2G	-ba-	2c	-ba-	.	.
.	.	.	.	.	.	4e	.
=37	=37	=37	=37	=37	=37	=37	=37
2FF	-oth,	1F	-oth,	1A	-oth,	2f	-oth,
*	*	*	*	*	*	*	*edit
2AA	Sa-	.	.	.	.	2cc	Sa-
!!LO:LB:g=original
=38	=38	=38	=38	=38	=38	=38	=38
2BB-y	.	2r	.	4.F	.	2dd	.
.	.	.	.	8G	.	.	.
4AA	.	2c	Sa-	2A	.	4cc	.
[4FF	.	.	.	.	.	[4a	.
=39	=39	=39	=39	=39	=39	=39	=39
4FF]	.	2d	.	2r	.	4a]	.
4GG	.	.	.	.	.	4b-y	.
2AA	.	4c	.	2E	Sa-	2cc	.
.	.	[4A	.	.	.	.	.
=40	=40	=40	=40	=40	=40	=40	=40
2D	-ba-	4A]	.	2F	.	2f	.
.	.	4B-y	.	.	.	.	.
2C	-oth,	2c	.	2G	.	4e	.
.	.	.	.	.	.	4c	.
=41	=41	=41	=41	=41	=41	=41	=41
1r	.	2F	.	2A	.	2d	.
.	.	4E	.	4G	.	4c	.
.	.	4C	.	[4c	.	[4g	.
=42	=42	=42	=42	=42	=42	=42	=42
1r	.	2D	-ba-	4c]	.	4g]	.
.	.	.	.	4Bni	-ba-	4f	.
.	.	4C	-oth,	4c	-oth,	4e	.
.	.	[4G	Sa-	[4B-y	Sa-	8dL	.
.	.	.	.	.	.	8cJ	.
=43	=43	=43	=43	=43	=43	=43	=43
4GG	Sa-	4G]	.	2B-]	.	4B-y	.
4BB-y	.	4F	.	.	.	2d	.
4C	.	4E	.	8GL	.	.	.
.	.	.	.	8EJ	.	.	.
4AA	.	4C	.	4F	.	[4c	-ba-
!!LO:PB:g=original
=44	=44	=44	=44	=44	=44	=44	=44
2GG	-ba-	2D	-ba-	2G	-ba-	4c]	.
.	.	.	.	.	.	4Bni	.
4.AA	-oth,	2C	-oth,	4E	-oth,	4.c	-oth,
.	.	.	.	4C	.	.	.
8BB-y	.	.	.	.	.	8d	.
=45	=45	=45	=45	=45	=45	=45	=45
4C	.	4.C	Sa-	2c	Sa-	4.e	.
4AA	.	.	.	.	.	.	.
.	.	8D	.	.	.	8f	.
4GG	.	4E	.	4B-y	.	4g	.
4FF	.	4F	.	[4A	.	[4a	Sa-
=46	=46	=46	=46	=46	=46	=46	=46
4F	Sa-	4A	.	4A]	.	4a]	.
4D	.	4B-y	.	4d	.	8gL	.
.	.	.	.	.	.	8fJ	.
4.C	.	2c	.	4.G	.	4.e	.
8BB-y	.	.	.	8A	.	8f	.
=47	=47	=47	=47	=47	=47	=47	=47
4GG	.	4B-y	.	4B-y	.	4g	.
4AA	.	4A	.	4c	.	2f	-ba-
4BB-y	.	2G	-ba-	4d	.	.	.
4C	.	.	.	4c	.	4e	.
=48	=48	=48	=48	=48	=48	=48	=48
*	*	*	*Xedit	*	*	*	*
4.D	.	[1Fl	-oth.	4.A	.	[1fl	-oth.
8C	.	.	.	8B-y	.	.	.
4AA	-ba-	.	.	4c	-ba-	.	.
4BB-y	.	.	.	4d	.	.	.
=49	=49	=49	=49	=49	=49	=49	=49
1FFl	-oth.	1F]	.	1cl	-oth.	1f]	.
.	.	.	.	.	.	.	.
!!LO:LB:g=original
=50||	=50||	=50||	=50||	=50||	=50||	=50||	=50||
*>B	*>B	*>B	*>B	*>B	*>B	*>B	*>B
*M2/2	*	*M2/2	*	*M2/2	*	*M2/2	*
*omet(C|)	*	*omet(C|)	*	*omet(C|)	*	*omet(C|)	*
!!section: Pleni
*	*	*	*	*	*Xedit	*	*Xedit
1r	.	1r	.	8FL	Ple-	2a	Ple-
.	.	.	.	8G	.	.	.
.	.	.	.	8A	.	.	.
.	.	.	.	8B-yJ	.	.	.
.	.	.	.	4c	.	4a	-ni
.	.	.	.	4F	-ni	[4a	sunt
=51	=51	=51	=51	=51	=51	=51	=51
1r	.	1r	.	4f	sunt	4a]	.
.	.	.	.	8eL	.	8gL	.
.	.	.	.	8dJ	.	8fJ	.
.	.	.	.	4e	.	4g	.
.	.	.	.	4f	.	4f	.
=52	=52	=52	=52	=52	=52	=52	=52
*	*Xedit	*	*	*	*	*	*
8FFL	Ce-	2.A	Ce-	1r	.	1r	.
8GG	.	.	.	.	.	.	.
8AA	.	.	.	.	.	.	.
8BB-yJ	.	.	.	.	.	.	.
4C	.	.	.	.	.	.	.
4FF	-li	[4A	-li	.	.	.	.
=53	=53	=53	=53	=53	=53	=53	=53
4F	et	4A]	.	1r	.	1r	.
8EL	.	8GL	et	.	.	.	.
8DJ	.	8FJ	.	.	.	.	.
4E	ter-	4G	ter-	.	.	.	.
4F	-ra	4F	-ra	.	.	.	.
=54	=54	=54	=54	=54	=54	=54	=54
*	*edit	*	*edit	*	*	*	*
4.D	glo-	1A	glo-	1r	.	1r	.
8C	.	.	.	.	.	.	.
8DL	.	.	.	.	.	.	.
8CJ	.	.	.	.	.	.	.
4AA	.	.	.	.	.	.	.
!!LO:LB:g=original
=55	=55	=55	=55	=55	=55	=55	=55
4.C	-ri-	2.G	-ri-	1r	.	1r	.
8BB-y	.	.	.	.	.	.	.
8CL	.	.	.	.	.	.	.
8BB-yJ	.	.	.	.	.	.	.
4GG	.	8FL	.	.	.	.	.
.	.	8EJ	.	.	.	.	.
=56	=56	=56	=56	=56	=56	=56	=56
4.BB-y	-a	4.D	-a	1r	.	1r	.
8AA	.	8C	.	.	.	.	.
8BB-yL	.	8DL	.	.	.	.	.
8AAJ	.	8CJ	.	.	.	.	.
4FF	.	[4F	tu-	.	.	.	.
=57	=57	=57	=57	=57	=57	=57	=57
2GG	tu-	4F]	.	1r	.	1r	.
.	.	4E	.	.	.	.	.
2FF	-a.	2F	-a.	.	.	.	.
=58	=58	=58	=58	=58	=58	=58	=58
*	*	*	*	*	*edit	*	*
1r	.	1r	.	1c	glo-	4.a	glo-
.	.	.	.	.	.	8g	.
.	.	.	.	.	.	8aL	.
.	.	.	.	.	.	8gJ	.
.	.	.	.	.	.	4e	.
=59	=59	=59	=59	=59	=59	=59	=59
1r	.	1r	.	2B-y	-ri-	4.g	-ri-
.	.	.	.	.	.	8f	.
.	.	.	.	2B-y	-a	8gL	.
.	.	.	.	.	.	8fJ	.
.	.	.	.	.	.	4d	.
!!LO:LB:g=original
=60	=60	=60	=60	=60	=60	=60	=60
1r	.	1r	.	4.A	tu-	4.f	-a
.	.	.	.	8G	.	8e	.
.	.	.	.	8AL	.	8fL	.
.	.	.	.	8G	.	8e	.
.	.	.	.	8A	.	8c	.
.	.	.	.	8GJ	.	8dJ	.
=61	=61	=61	=61	=61	=61	=61	=61
1r	.	1r	.	2c	.	8eL	.
.	.	.	.	.	.	8fJ	.
.	.	.	.	.	.	4g	.
.	.	.	.	4F	.	4.a	.
.	.	.	.	[4c	.	.	.
.	.	.	.	.	.	8g	.
=62	=62	=62	=62	=62	=62	=62	=62
1r	.	1r	.	4c]	.	4e	.
.	.	.	.	8B-yL	.	2f	tu-
.	.	.	.	8AJ	.	.	.
.	.	.	.	2G	.	.	.
.	.	.	.	.	.	4e	.
*	*	*	*Xedit	*	*	*	*
=63	=63	=63	=63	=63	=63	=63	=63
!!!ONB: Start of Osaana, but no section break
2r	.	2r	.	2F	-a.	2f	-a.
2F	O-	2c	O-	2r	.	2a	O-
=64	=64	=64	=64	=64	=64	=64	=64
1F	-san-	1c	-san-	2r	.	1a	-san-
*	*	*	*	*	*Xedit	*	*
.	.	.	.	2f	O-	.	.
=65	=65	=65	=65	=65	=65	=65	=65
1G	-na	2.B-y	-na	1d	-san-	2g	-na
*	*	*	*	*	*	*	*edit
.	.	.	.	.	.	2b-y	in
.	.	8AL	.	.	.	.	.
.	.	8GJ	.	.	.	.	.
!!LO:PB:g=original
=66	=66	=66	=66	=66	=66	=66	=66
*	*	*	*edit	*	*	*	*
1D	in	4.F	in	1d	-na	2.a	ex-
.	.	8G	.	.	.	.	.
.	.	4A	.	.	.	.	.
.	.	4B-y	ex-	.	.	8gL	.
.	.	.	.	.	.	8fJ	.
=67	=67	=67	=67	=67	=67	=67	=67
*	*	*	*	*	*edit	*	*
1C	ex-	1c	-cel-	2.G	in	1e	.
.	.	.	.	4A	.	.	.
=68	=68	=68	=68	=68	=68	=68	=68
[1BB-y	-cel-	1F	-sis,	2.B-y	ex-	2.d	-cel-
.	.	.	.	[4d	-cel-	[4f	.
=69	=69	=69	=69	=69	=69	=69	=69
1BB-]	.	2r	.	8dL]	.	8fL]	.
.	.	.	.	8eJ	.	8e	.
.	.	.	.	4.f	.	8d	.
.	.	.	.	.	.	8cJ	.
.	.	2F	o-	.	.	2d	-sis,
.	.	.	.	8eL	.	.	.
.	.	.	.	8d	.	.	.
.	.	.	.	8cJ	.	.	.
=70	=70	=70	=70	=70	=70	=70	=70
[1GG	-sis,	4G	-san-	8B-yL	.	2r	.
.	.	.	.	8c	.	.	.
.	.	4D	.	8d	.	.	.
.	.	.	.	8e-iJ	.	.	.
.	.	2G	-na,	4d	.	2b-y	o-
.	.	.	.	[4g	.	.	.
!!LO:LB:g=original
=71	=71	=71	=71	=71	=71	=71	=71
1GG]	.	2r	.	4g]	.	2b-y	-san-
.	.	.	.	8fL	.	.	.
.	.	.	.	8eJ	.	.	.
.	.	[2G	o-	2d	.	2b-y	-na
=72	=72	=72	=72	=72	=72	=72	=72
*	*	*	*	*	*	*	*Xedit
*	*	*	*	*	*	*col	*
2C	o-	2G]	.	2c	-sis,	4.cc	in
.	.	.	.	.	.	8b-y	.
*	*	*	*	*	*	*Xcol	*
4FF	-san-	2c	.	2r	.	8aL	.
.	.	.	.	.	.	8gJ	.
[4F	-na	.	.	.	.	[4a	.
=73	=73	=73	=73	=73	=73	=73	=73
4F]	.	4A	-san-	4c	o-	8aL]	.
.	.	.	.	.	.	8gJ	.
4.G	in	4G	-na	4B-y	-san-	4.b-y	ex-
.	.	2B-y	in	4d	-na	.	.
8FL	.	.	.	.	.	8aL	.
8E	.	.	.	[4G	in	8g	.
8DJ	.	.	.	.	.	8fJ	.
=74	=74	=74	=74	=74	=74	=74	=74
4C	.	4c	ex-	8GL]	.	4e	.
.	.	.	.	8AJ	.	.	.
4D	ex-	4F	.	4B-y	ex-	2f	-cel-
2C	-cel-	2G	-cel-	2c	-cel-	.	.
.	.	.	.	.	.	4e	.
=75	=75	=75	=75	=75	=75	=75	=75
1FFl	-sis.	1Fl	-sis.	1cl	-sis.	1fl	-sis.
*	*	*	*	*	*Xedit	*	*
!!LO:LB:g=original
=76||	=76||	=76||	=76||	=76||	=76||	=76||	=76||
*>C	*>C	*>C	*>C	*>C	*>C	*>C	*>C
*M2/2	*	*M2/2	*	*M2/2	*	*M2/2	*
*omet(C|)	*	*omet(C|)	*	*omet(C|)	*	*omet(C|)	*
!!section: Benedictus
1r	.	1r	.	2.f	Be-	2f	Be-
.	.	.	.	.	.	4a	-ne-
.	.	.	.	4d	-ne-	4b-y	.
=77	=77	=77	=77	=77	=77	=77	=77
*	*	*	*	*	*	*col	*
1r	.	1r	.	4e	.	4.cc	-di-
.	.	.	.	4.f	-di-	.	.
.	.	.	.	.	.	8b-y	.
*	*	*	*	*	*	*Xcol	*
.	.	.	.	.	.	4a	.
.	.	.	.	8e	.	.	.
*	*	*	*	*	*	*col	*
.	.	.	.	4c	.	[4cc	.
=78	=78	=78	=78	=78	=78	=78	=78
1r	.	1r	.	4.f	.	8ccL]	.
.	.	.	.	.	.	8b-y	.
*	*	*	*	*	*	*Xcol	*
.	.	.	.	.	.	8a	.
.	.	.	.	8e	.	8gJ	.
.	.	.	.	8dL	.	4.f	.
.	.	.	.	8cJ	.	.	.
.	.	.	.	[4d	.	.	.
.	.	.	.	.	.	8e	.
=79	=79	=79	=79	=79	=79	=79	=79
1r	.	1r	.	4d]	.	8fL	.
.	.	.	.	.	.	8eJ	.
.	.	.	.	4c	.	2a	.
.	.	.	.	2B-y	.	.	.
.	.	.	.	.	.	4g	.
=80	=80	=80	=80	=80	=80	=80	=80
*	*Xedit	*	*Xedit	*	*	*	*
2F	Qui	2F	Qui	2A	-ctus	2a	-ctus
4F	ve-	4A	ve-	2r	.	2r	.
4D	.	4B-y	.	.	.	.	.
=81	=81	=81	=81	=81	=81	=81	=81
4E	.	4.c	.	1r	.	1r	.
4.F	.	.	.	.	.	.	.
.	.	8B-y	.	.	.	.	.
.	.	4A	.	.	.	.	.
8E	.	.	.	.	.	.	.
4C	.	[4c	.	.	.	.	.
!!LO:LB:g=original
=82	=82	=82	=82	=82	=82	=82	=82
4.F	.	8cL]	.	1r	.	1r	.
.	.	8B-y	.	.	.	.	.
.	.	8A	.	.	.	.	.
8E	.	8GJ	.	.	.	.	.
8DL	.	4F	.	.	.	.	.
8CJ	.	.	.	.	.	.	.
[4D	.	[4B-y	.	.	.	.	.
=83	=83	=83	=83	=83	=83	=83	=83
4D]	.	4B-]	.	1r	.	1r	.
4C	.	2A	.	.	.	.	.
2BB-y	.	.	.	.	.	.	.
.	.	4G	.	.	.	.	.
=84	=84	=84	=84	=84	=84	=84	=84
2AA	-nit	2A	-nit	4r	.	4e	in
*	*	*	*	*	*edit	*	*
.	.	.	.	4A	in	4e	no-
2r	.	2r	.	4A	no-	4e	-mi-
.	.	.	.	4A	-mi-	8cL	.
.	.	.	.	.	.	8dJ	.
=85	=85	=85	=85	=85	=85	=85	=85
1r	.	1r	.	4.G	-ne	8eL	.
.	.	.	.	.	.	8fJ	.
.	.	.	.	.	.	2g	.
.	.	.	.	8A	.	.	.
.	.	.	.	8B-yL	.	.	.
.	.	.	.	8cJ	.	.	.
*	*	*	*	*	*	*col	*
.	.	.	.	[4d	.	[4f	-ne
=86	=86	=86	=86	=86	=86	=86	=86
4r	.	1r	.	8dL]	.	8fL]	.
.	.	.	.	8c	.	8e	.
*	*	*	*	*	*	*Xcol	*
*	*edit	*	*	*	*	*	*
4D	in	.	.	8Bni	.	8d	.
.	.	.	.	8AJ	.	8cJ	.
4D	no-	.	.	2Bni	.	2d	.
4D	-mi-	.	.	.	.	.	.
=87	=87	=87	=87	=87	=87	=87	=87
*	*	*	*edit	*	*	*	*
4.C	-ne	4.c	in	1r	.	1r	.
8D	.	8B-y	.	.	.	.	.
8EL	.	8GL	.	.	.	.	.
8FJ	.	8FJ	.	.	.	.	.
[4G	.	4B-y	.	.	.	.	.
!!LO:PB:g=original
=88	=88	=88	=88	=88	=88	=88	=88
4G]	.	4A	no-	1r	.	1r	.
2F	Do-	4F	-mi-	.	.	.	.
.	.	2G	-ne.	.	.	.	.
4E	-mi-	.	.	.	.	.	.
=89	=89	=89	=89	=89	=89	=89	=89
2F	-ni.	1r	.	8FL	Do-	4r	.
.	.	.	.	8G	.	.	.
.	.	.	.	8A	.	2cc	Do-
.	.	.	.	8B-yJ	.	.	.
2r	.	.	.	8cL	.	.	.
.	.	.	.	8d	.	.	.
.	.	.	.	8e	.	8b-yL	.
.	.	.	.	8fJ	.	8aJ	.
=90	=90	=90	=90	=90	=90	=90	=90
1r	.	1r	.	8eL	.	8gL	.
.	.	.	.	8dJ	.	8fJ	.
.	.	.	.	2g	.	4b-y	.
.	.	.	.	.	.	4a	.
.	.	.	.	[4f	-mi-	4f	.
=91	=91	=91	=91	=91	=91	=91	=91
*	*	*	*	*	*	*lig	*
1r	.	1r	.	4f]	.	2g	-mi-
.	.	.	.	4e	.	.	.
.	.	.	.	2f	-ni.	2f	-ni.
*	*	*	*	*	*	*Xlig	*
=92	=92	=92	=92	=92	=92	=92	=92
*	*Xedit	*	*	*	*Xedit	*	*
2F	O-	2c	O-	2f	O-	1a	O-
2F	-san-	2c	-san-	2f	-san-	.	.
!!LO:LB:g=original
=93	=93	=93	=93	=93	=93	=93	=93
1C	-na	1c	-na	1e	-na	1g	-san-
=94	=94	=94	=94	=94	=94	=94	=94
*	*edit	*	*	*	*edit	*	*
2.BB-y	in	[1F	in	2.d	in	1b-y	-na
8AAL	.	.	.	4e	.	.	.
8GGJ	.	.	.	.	.	.	.
=95	=95	=95	=95	=95	=95	=95	=95
*	*	*	*	*	*	*	*edit
1FF	.	1F]	.	2.f	.	1a	in
.	.	.	.	8eL	.	.	.
.	.	.	.	8dJ	.	.	.
=96	=96	=96	=96	=96	=96	=96	=96
2.F	ex-	2.A	ex-	4.c	ex-	2.cc	ex-
.	.	.	.	8B-y	.	.	.
.	.	.	.	4A	.	.	.
4G	.	4B-y	.	4G	.	4b-y	.
=97	=97	=97	=97	=97	=97	=97	=97
*	*	*	*	*	*	*col	*
4A	.	2.c	.	4.F	.	4.a	.
4F	.	.	.	.	.	.	.
.	.	.	.	8E	.	8g	.
*	*	*	*	*	*	*Xcol	*
4C	.	.	.	[2G	.	4e	.
[4E-X	-cel-	[4B-y	.	.	.	[4g	.
=98	=98	=98	=98	=98	=98	=98	=98
4E-]	.	8B-L]	.	4G]	.	4g]	.
.	.	8AJ	.	.	.	.	.
4F	.	4F	.	2.c	.	2f	-cel-
2C	-sis,	2G	-cel-	.	.	.	.
.	.	.	.	.	.	4e	.
!!LO:LB:g=original
=99	=99	=99	=99	=99	=99	=99	=99
2D	o-	2F	-sis,	2A	-cel-	1f	-sis,
4D	-san-	2A	o-	2F	-sis,	.	.
[4D	-na	.	.	.	.	.	.
=100	=100	=100	=100	=100	=100	=100	=100
4D]	.	4A	-san-	1r	.	1r	.
8CL	.	2A	-na	.	.	.	.
8BB-yJ	.	.	.	.	.	.	.
4AA	.	.	.	.	.	.	.
[4C	in	8GL	.	.	.	.	.
.	.	8FJ	.	.	.	.	.
=101	=101	=101	=101	=101	=101	=101	=101
4C]	.	4E	.	1r	.	1r	.
8BB-yL	.	2G	in	.	.	.	.
8AAJ	.	.	.	.	.	.	.
4GG	.	.	.	.	.	.	.
[4BB-y	ex-	8FL	.	.	.	.	.
.	.	8EJ	.	.	.	.	.
=102	=102	=102	=102	=102	=102	=102	=102
4BB-]	.	4D	.	1r	.	1r	.
8AAL	.	2F	ex-	.	.	.	.
8GGJ	.	.	.	.	.	.	.
8FFL	.	.	.	.	.	.	.
8GG	.	.	.	.	.	.	.
8AA	.	8EL	.	.	.	.	.
8BB-yJ	.	8DJ	.	.	.	.	.
=103	=103	=103	=103	=103	=103	=103	=103
4.C	.	8CL	.	1r	.	1r	.
.	.	8D	.	.	.	.	.
.	.	8E	.	.	.	.	.
8D	.	8FJ	.	.	.	.	.
4E	.	4G	.	.	.	.	.
4F	.	[4A	.	.	.	.	.
=104	=104	=104	=104	=104	=104	=104	=104
4.D	.	8AL]	.	1r	.	1r	.
.	.	8GJ	.	.	.	.	.
.	.	4B-y	.	.	.	.	.
8BB-y	.	.	.	.	.	.	.
4C	.	4A	.	.	.	.	.
4AA	.	4c	.	.	.	.	.
!!LO:LB:g=original
=105	=105	=105	=105	=105	=105	=105	=105
4GG	.	4B-y	.	1r	.	1r	.
4AA	.	2A	-cel-	.	.	.	.
2BB-y	-cel-	.	.	.	.	.	.
.	.	4G	.	.	.	.	.
=106	=106	=106	=106	=106	=106	=106	=106
2AA	-sis,	2A	-sis,	4.c	o-	8cL	o-
.	.	.	.	.	.	8d	.
.	.	.	.	.	.	8e	.
.	.	.	.	8d	.	8fJ	.
2r	.	2r	.	4e	.	4g	.
.	.	.	.	4f	-san-	[4a	-san-
=107	=107	=107	=107	=107	=107	=107	=107
1r	.	1r	.	4.d	-na	8aL]	.
.	.	.	.	.	.	8gJ	.
.	.	.	.	.	.	4b-y	.
.	.	.	.	8e	.	.	.
.	.	.	.	4f	.	4a	-na
.	.	.	.	4F	in	4cc	in
=108	=108	=108	=108	=108	=108	=108	=108
1r	.	1r	.	4G	ex-	4b-y	ex-
.	.	.	.	4A	.	2a	-cel-
.	.	.	.	2B-y	-cel-	.	.
.	.	.	.	.	.	4g	.
=109	=109	=109	=109	=109	=109	=109	=109
4.D	o-	2r	.	2A	-sis,	2a	-sis,
8E	.	.	.	.	.	.	.
4F	.	4.A	o-	2r	.	2r	.
4D	-san-	.	.	.	.	.	.
.	.	8B-y	.	.	.	.	.
=110	=110	=110	=110	=110	=110	=110	=110
4E	-na	4c	.	1r	.	1r	.
4F	.	4A	-san-	.	.	.	.
4G	in	4B-y	-na	.	.	.	.
[4C	ex-	4c	in	.	.	.	.
!!LO:PB:g=original
=111	=111	=111	=111	=111	=111	=111	=111
8CL]	.	4.G	ex-	1r	.	1r	.
8DJ	.	.	.	.	.	.	.
4E	.	.	.	.	.	.	.
.	.	8A	.	.	.	.	.
4D	.	8B-yL	.	.	.	.	.
.	.	8cJ	.	.	.	.	.
[4G	.	[4d	.	.	.	.	.
=112	=112	=112	=112	=112	=112	=112	=112
4G]	.	4d]	.	1r	.	4r	.
4E	.	2c	-cel-	.	.	4g	o-
2D	-cel-	.	.	.	.	4.f	-san-
.	.	4Bni	.	.	.	.	.
.	.	.	.	.	.	8d	.
=113	=113	=113	=113	=113	=113	=113	=113
2C	-sis,	2c	-sis,	2r	.	4e	.
.	.	.	.	.	.	2g	.
8CL	o-	2r	.	4r	.	.	.
8D	.	.	.	.	.	.	.
8E	.	.	.	4c	o-	4e	.
8FJ	.	.	.	.	.	.	.
=114	=114	=114	=114	=114	=114	=114	=114
2G	-san-	1r	.	2B-y	-san-	2d	-na,
4.A	-na	.	.	4A	-na	2r	.
.	.	.	.	[4c	in	.	.
8G	.	.	.	.	.	.	.
=115	=115	=115	=115	=115	=115	=115	=115
4E	in	1r	.	8cL]	.	4r	.
.	.	.	.	8B-yJ	.	.	.
2F	ex-	.	.	4A	.	4cc	o-
.	.	.	.	2G	ex-	2b-y	-san-
4E	-cel-	.	.	.	.	.	.
=116	=116	=116	=116	=116	=116	=116	=116
2F	-sis,	2r	.	8FL	-cel-	4a	-na
.	.	.	.	8G	.	.	.
.	.	.	.	8A	.	2cc	in
.	.	.	.	8B-yJ	.	.	.
2r	.	4r	.	8cL	.	.	.
.	.	.	.	8FJ	.	.	.
.	.	4F	in	[4f	.	4a	ex-
!!LO:LB:g=original
=117	=117	=117	=117	=117	=117	=117	=117
*	*	*	*	*	*	*lig	*
1r	.	2c	ex-	4f]	.	2g	-cel-
.	.	.	.	4e	.	.	.
.	.	4.F	-cel-	2f	-sis,	2f	-sis,
.	.	8G	.	.	.	.	.
*	*	*	*	*	*	*Xlig	*
=118	=118	=118	=118	=118	=118	=118	=118
4.FF	o-	8AL	.	4r	.	1r	.
.	.	8B-yJ	.	.	.	.	.
.	.	4c	.	4.F	o-	.	.
8GG	.	.	.	.	.	.	.
8AAL	.	4F	-sis,	.	.	.	.
8BB-yJ	.	.	.	8GL	.	.	.
4C	.	4r	.	8A	.	.	.
.	.	.	.	8B-yJ	.	.	.
=119	=119	=119	=119	=119	=119	=119	=119
4FF	.	1r	.	4c	.	1r	.
4.AA	-san-	.	.	4F	.	.	.
.	.	.	.	4.A	-san-	.	.
8BB-yL	.	.	.	.	.	.	.
8C	.	.	.	.	.	.	.
8DJ	.	.	.	8B-y	.	.	.
=120	=120	=120	=120	=120	=120	=120	=120
4E	.	1r	.	8cL	.	1r	.
.	.	.	.	8dJ	.	.	.
4AA	-na	.	.	4e	.	.	.
4.C	in	.	.	4A	-na	.	.
.	.	.	.	[4c	in	.	.
8D	.	.	.	.	.	.	.
=121	=121	=121	=121	=121	=121	=121	=121
8EL	.	1r	.	8cL]	.	1r	.
8FJ	.	.	.	8d	.	.	.
4G	.	.	.	8e	.	.	.
.	.	.	.	8fJ	.	.	.
4C	ex-	.	.	4g	.	.	.
[4F	-cel-	.	.	4c	ex-	.	.
!!LO:LB:g=original
=122	=122	=122	=122	=122	=122	=122	=122
2F]	.	2r	.	4.f	-cel-	4.f	o-
.	.	.	.	8e	.	8g	.
[2F	-sis,	4.F	o-	4c	.	8aL	.
.	.	.	.	.	.	8b-yJ	.
.	.	.	.	4A	.	4cc	.
.	.	8G	.	.	.	.	.
=123	=123	=123	=123	=123	=123	=123	=123
4F]	.	8AL	.	4c	.	4.f	-san-
.	.	8B-yJ	.	.	.	.	.
4.F	o-	4c	.	4F	.	.	.
.	.	.	.	.	.	8g	.
.	.	4F	-san-	2f	-sis,	4.a	-na
8D	.	.	.	.	.	.	.
4F	-san-	4c	-na	.	.	.	.
.	.	.	.	.	.	8f	.
=124	=124	=124	=124	=124	=124	=124	=124
*	*	*	*	*	*	*	*Xedit
2BB-y	-na	2d	in	4r	.	4.b-y	in
.	.	.	.	4F	in	.	.
.	.	.	.	.	.	8a	.
4E-X	in	4B-y	.	2G	ex-	8gL	.
.	.	.	.	.	.	8f	.
4C	.	[4c	ex-	.	.	8e-j	.
.	.	.	.	.	.	8dJ	.
=125	=125	=125	=125	=125	=125	=125	=125
2F	ex-	4c]	.	4A	.	4c	ex-
.	.	4A	.	2.c	-cel-	2f	-cel-
2C	-cel-	2G	-cel-	.	.	.	.
.	.	.	.	.	.	4e	.
=126	=126	=126	=126	=126	=126	=126	=126
1FFl	-sis.	1Fl	-sis.	1cl	-sis.	1fl	-sis.
==	==	==	==	==	==	==	==
*-	*-	*-	*-	*-	*-	*-	*-
!!!system-decoration: [*]
!!!RDF**kern: j = editorial accidental, optional, paren up
!!!RDF**kern: i = editorial accidental
!!!RDF**kern: l = terminal breve
!!!PTL: Gaspar van Weerbeke: Collected Works. Collected Works. II. Masses, Part 2
!!!ISBN: 978-1-59551-518-6
!!!PPR: American Institute of Musicology
!!!PC#: Corpus Mensurabilis Musicae 106/II.2
!!!PDT: 2018
!!!PED: Kolb, Paul
!!!YEC: Copyright 2016, Kolb, Paul
!!!YEM: CC-BY-NC 4.0 (https://creativecommons.org/licenses/by-nc/4.0/legalcode)
!!!EED: Zybina, Karina
!!!EEV: 2021/11/07
!!!title: @{OPR} &mdash; @{OTL}
!!!muse2ps: C^@{COM}^i2I150v90,90,90,120c122z18l2700t130
